X: 1136
T: Big Sandy River
C:Traditional
B: ralph
B: steve tunes
M:4/4
L:1/8
Q: 1/4=75
K:A
V:1 
 (3efg |: "A"a2 c2 d2 ^d2 | eaed cBAF  | "E"EFGA BAGB
| ABcd eceg | "A"a2 c2 d2 ^d2 | efe=c ^cAF=F |
"E"EFGA BdcB |[1 A"A"GAB A2 (3efg :|[2 A"A"GAB A2 EF||
|: "A"AGAB cAAc | "D"dcde fddf | "E"e^def gefg |
"A"afed cABG || AGAB cABc | "D"dcde fedf |
"E"e^def gefg |[1 a"A"gab a2 EF :|[2 a"A"gab a4||
% abcbook-tune_id 6298c24580576e9a11631458


% abcbook-boost 0
% abcbook-tablature 
% abcbook-transpose 
% abcbook-lastupdated 1665485088645
% abcbook-soundfonts 
% abcbook-repeats 3


